X: 28131
T: Mrs Crehan's
R: reel
M: 4/4
K: Gmajor
|:G2dG eGdG|G2dB AdBA|G2dG eGdB|cAAB cedB|
G2dG eGdG|G2dB AdBA|G2dG eGdB|1 cAAB cedB:|2 cAAB cege||
|:d2Bd GdBd|GdBd ecAc|d2Bd GdBd|ecAB cege|
d2BG G2BG|G2BG ABcA|~G3B dedB|ceAc BGGB:|

